assets/features/channel/east-asia/Ministop.svg

<svg width="80" height="80" viewBox="0 0 80 80" fill="none" xmlns="http://www.w3.org/2000/svg">
<rect width="80" height="80" rx="8" fill="#FFCB01"/>
<path d="M17.5418 42.859C17.5418 42.8151 17.5059 42.779 17.462 42.779H14.7021C13.2098 42.779 12 41.5668 12 40.0774C12 39.3552 12.2399 38.6241 12.7915 38.0734L27.869 22.3932C28.9268 21.3357 30.6412 21.3357 31.699 22.3932L35.2127 25.8073L42.3111 25.7962C42.7828 22.8905 46.5887 21.6065 49.1557 21.6065C53.4835 21.6065 57.1045 24.6277 58.0259 28.6744C58.042 28.7452 58.0591 28.8153 58.0706 28.8862C58.0779 28.9236 58.0987 28.9555 58.1308 28.9722C61.2424 30.6837 63.4226 33.8776 63.7182 37.6029C63.7225 37.6493 63.7432 37.6889 63.7815 37.7098C63.8043 37.7229 63.8272 37.7375 63.8509 37.7515C66.3366 39.2443 68 41.9654 68 45.0753C68 48.636 65.8197 51.687 62.7213 52.9687C62.6927 52.9805 62.672 53.0088 62.672 53.0422V55.8348C62.672 57.327 61.4615 58.5373 59.9688 58.5373H20.2497C18.7565 58.5373 17.546 57.327 17.546 55.8348L17.5418 42.859Z" fill="white"/>
<path d="M39.1869 42.1771C40.1465 42.1771 40.9255 41.3995 40.9255 40.439V34.1129C40.9255 33.1533 40.1465 32.375 39.1869 32.375C38.2259 32.375 37.4482 33.1533 37.4482 34.1129V40.439C37.4482 41.3993 38.2261 42.1771 39.1869 42.1771Z" fill="#003894"/>
<path d="M52.8723 42.1771C53.8324 42.1771 54.6112 41.3995 54.6112 40.439V34.1129C54.6112 33.1533 53.8324 32.375 52.8723 32.375C51.9123 32.375 51.1338 33.1533 51.1338 34.1129V40.439C51.1338 41.3993 51.9123 42.1771 52.8723 42.1771Z" fill="#003894"/>
<path d="M33.603 46.1836C33.603 46.131 33.56 46.0877 33.5067 46.0877L33.0514 46.0865C32.2485 46.0865 31.5977 45.4359 31.5977 44.6332C31.5977 43.8304 32.2484 43.1797 33.0514 43.1797H37.1536C37.9567 43.1797 38.6078 43.8304 38.6078 44.6332C38.6078 45.4357 37.9567 46.0865 37.1536 46.0865L36.9178 46.0877C36.8645 46.0877 36.8214 46.131 36.8214 46.1836L36.8198 51.3599C36.8198 52.2473 36.0997 52.966 35.2127 52.966C34.3252 52.966 33.6056 52.2473 33.6056 51.3599L33.603 46.1836Z" fill="#003894"/>
<path d="M48.3401 32.375C47.4144 32.375 46.6641 33.1256 46.6641 34.0512L46.6489 35.2822L46.6479 35.2746C46.6479 35.2934 46.6327 35.3093 46.6128 35.3093C46.6006 35.3093 46.59 35.3032 46.5837 35.2934L45.087 33.1257V33.127C44.7849 32.691 44.2804 32.4057 43.7095 32.4057C42.7833 32.4057 42.0337 33.1556 42.0337 34.0818V40.4844C42.0337 41.41 42.7833 42.1607 43.7095 42.1607C44.6354 42.1607 45.386 41.4101 45.386 40.4844L45.4036 39.227V39.2296C45.4036 39.2102 45.4196 39.1949 45.4384 39.1949C45.451 39.1949 45.4605 39.1998 45.4668 39.2095L46.9319 41.3626C47.2308 41.8245 47.7497 42.13 48.3399 42.13C49.2653 42.13 50.0158 41.3794 50.0158 40.4536V34.0512C50.016 33.1256 49.2657 32.375 48.3401 32.375Z" fill="#003894"/>
<path d="M34.6118 32.3751C34.0743 32.3751 33.5951 32.6195 33.2771 33.0028V33L31.4135 35.1114C31.4135 35.1114 31.3919 35.1607 31.344 35.1607C31.2961 35.1607 31.2554 35.1114 31.2554 35.1114L29.3628 33.0174C29.0451 32.6257 28.5606 32.375 28.0161 32.375C27.0591 32.375 26.2832 33.1513 26.2832 34.1081V40.4912C26.2832 41.416 27.034 42.1667 27.9592 42.1667C28.885 42.1667 29.6357 41.416 29.6357 40.4912L29.6768 38.1942C29.6799 38.1692 29.7003 38.1492 29.7265 38.1492C29.7393 38.1492 29.7517 38.1548 29.7609 38.163L31.2664 39.8462C31.2664 39.8462 31.3052 39.9067 31.358 39.9067C31.4102 39.9067 31.4483 39.8462 31.4483 39.8462L32.8651 38.1333C32.8742 38.1242 32.8862 38.1193 32.9002 38.1193C32.9282 38.1193 32.9505 38.1408 32.9505 38.1685H32.9512L32.9929 40.4912C32.9929 41.416 33.743 42.1667 34.669 42.1667C35.5947 42.1667 36.3457 41.416 36.3457 40.4912V34.1081C36.3456 33.1514 35.5689 32.3751 34.6118 32.3751Z" fill="#003894"/>
<path d="M53.0768 47.177L52.2118 47.1763C52.1836 47.1763 52.1607 47.1547 52.1607 47.1264V45.7028C52.1607 45.6752 52.1835 45.6536 52.2118 45.6536L53.0768 45.6543C53.4978 45.6543 53.8388 45.9944 53.8388 46.4152C53.8388 46.8354 53.4977 47.177 53.0768 47.177ZM53.0826 43.1811L49.7897 43.1797C49.2347 43.1797 48.7856 43.6297 48.7856 44.1837L48.7925 51.2821C48.7925 52.2119 49.5459 52.9658 50.4766 52.9658C51.4075 52.9658 52.162 52.2118 52.162 51.2821L52.1626 49.6358C52.1626 49.6079 52.1847 49.5858 52.213 49.5858L52.975 49.5865C55.3304 49.5865 56.4553 47.9971 56.4553 46.416C56.4551 44.6294 54.9446 43.1811 53.0826 43.1811Z" fill="#003894"/>
<path d="M59.8928 40.6485C59.8944 40.6493 59.8955 40.6493 59.8971 40.6493C62.197 40.8679 63.9964 42.8162 63.9964 45.1501C63.9964 47.4421 62.2678 49.3336 60.0268 49.6063C59.2499 49.7013 58.6479 50.3374 58.6479 51.1353V54.3891C58.6479 54.4584 58.592 54.5133 58.5235 54.5133H21.6974C21.6291 54.5133 21.5727 54.4585 21.5727 54.3891L21.57 40.1618C21.57 39.3759 20.9324 38.7377 20.1461 38.7377H17.9529C17.9382 38.7377 17.9236 38.7322 17.9132 38.7218C17.891 38.7004 17.891 38.6648 17.9132 38.6432L29.7518 26.3833C29.7741 26.3616 29.8094 26.3616 29.8306 26.3833L33.4199 29.8369C33.9118 30.3293 34.83 30.3744 35.3669 29.8369C35.9041 29.2989 35.9 28.4232 35.3628 27.8866L30.7557 23.4032C30.2178 22.8665 29.3468 22.8665 28.8087 23.4032L13.6066 39.166C13.4017 39.4126 13.2778 39.7326 13.2778 40.0791C13.2778 40.8652 13.9424 41.4789 14.7019 41.4789H18.7011C18.7695 41.4789 18.8251 41.5345 18.8251 41.6033V55.8345C18.8251 56.6213 19.4627 57.2589 20.2496 57.2589H59.9738C60.7601 57.2589 61.3975 56.6213 61.3975 55.8345V52.188C61.3975 52.1505 61.4217 52.1214 61.4552 52.1116C64.4849 51.2465 66.7011 48.4573 66.7011 45.1501C66.7011 42.3116 65.0669 39.8556 62.6875 38.669C62.64 38.6446 62.5918 38.6225 62.5448 38.5989C62.4937 38.5754 62.4593 38.524 62.4593 38.4642C62.4268 34.6939 60.2083 31.4457 57.0075 29.9258C56.9578 29.9014 56.9308 29.85 56.9234 29.7916C56.4394 25.934 53.1457 22.9497 49.1557 22.9497C47.4124 22.9497 45.8006 23.5183 44.4996 24.4828C43.8858 24.9369 43.7206 25.7792 44.1576 26.404C44.5946 27.0288 45.4747 27.2074 46.0799 26.7457C46.9337 26.0936 47.9999 25.7069 49.1557 25.7069C51.1414 25.7069 52.8591 26.8476 53.6925 28.5091C54.0333 29.1911 54.3373 30.159 54.3373 31.788C54.3373 31.8475 54.3786 31.8976 54.4349 31.9088C54.5247 31.9275 54.6112 31.951 54.6989 31.9754C57.233 32.6627 59.1772 34.8138 59.6072 37.444C59.6656 37.8022 59.7829 38.7612 59.7829 40.527C59.7828 40.5909 59.8308 40.6415 59.8928 40.6485Z" fill="#003894"/>
<path d="M31.4777 49.8865C31.4777 51.712 30 53.1917 28.174 53.1917C26.8984 53.1917 25.9293 52.6883 25.1816 51.8878C24.953 51.6433 24.8242 51.3072 24.8242 50.9461C24.8242 50.1705 25.4529 49.5414 26.2291 49.5414C26.535 49.5414 26.9176 49.6928 27.1129 49.7969C27.2128 49.8504 27.7111 50.1912 27.9156 50.1912C28.0691 50.1912 28.1935 50.0677 28.1935 49.9143C28.1935 49.7158 27.9212 49.5429 27.7969 49.4803C26.3855 48.7748 25.0888 47.8154 25.0888 46.06C25.0888 44.3054 26.3501 42.9224 28.3421 42.9224C29.4134 42.9224 30.3536 43.4048 31.0256 44.136C31.2291 44.3575 31.3485 44.6499 31.3485 44.9734C31.3485 45.6594 30.7919 46.2156 30.1055 46.2156C29.6347 46.2156 29.0074 45.8273 28.9512 45.7969C28.7859 45.7059 28.7159 45.622 28.5519 45.622C28.3881 45.622 28.256 45.754 28.256 45.9178C28.256 46.1386 28.5179 46.3206 29.1366 46.6233C30.8399 47.4569 31.4777 48.6603 31.4777 49.8865Z" fill="#003894"/>
<path d="M43.0182 50.0367C41.9201 50.0367 41.0309 49.1472 41.0309 48.0494C41.0309 46.9523 41.9202 46.063 43.0182 46.063C44.1153 46.063 45.0054 46.9523 45.0054 48.0494C45.0055 49.1472 44.1153 50.0367 43.0182 50.0367ZM43.0197 42.9385C40.2327 42.9385 37.9736 45.2276 37.9736 48.0496C37.9736 50.8727 40.2328 53.1607 43.0197 53.1607C45.8066 53.1607 48.0661 50.8727 48.0661 48.0496C48.0661 45.2276 45.8067 42.9385 43.0197 42.9385Z" fill="#003894"/>
</svg>

<svg xmlns="http://www.w3.org/2000/svg" width="80" height="80" fill="none" viewBox="0 0 80 80"><rect width="80" height="80" fill="#ffcb01" rx="8"/><path fill="#fff" d="M17.542 42.859a.08.08 0 0 0-.08-.08h-2.76A2.704 2.704 0 0 1 12 40.077c0-.722.24-1.453.791-2.004l15.078-15.68a2.71 2.71 0 0 1 3.83 0l3.514 3.414 7.098-.01c.472-2.907 4.278-4.19 6.845-4.19a9.1 9.1 0 0 1 8.87 7.067q.026.106.045.212a.12.12 0 0 0 .06.086 10.84 10.84 0 0 1 5.587 8.63c.004.047.025.087.063.108l.07.041a8.542 8.542 0 0 1-1.13 15.217.08.08 0 0 0-.049.074v2.793a2.703 2.703 0 0 1-2.703 2.702h-39.72a2.703 2.703 0 0 1-2.703-2.702z"/><path fill="#003894" d="M39.187 42.177c.96 0 1.739-.777 1.739-1.738v-6.326a1.739 1.739 0 0 0-3.478 0v6.326c0 .96.778 1.738 1.739 1.738m13.685 0c.96 0 1.74-.777 1.74-1.738v-6.326a1.739 1.739 0 0 0-3.478 0v6.326c0 .96.778 1.738 1.738 1.738m-19.269 4.007a.096.096 0 0 0-.096-.096l-.456-.002a1.453 1.453 0 1 1 0-2.906h4.103a1.454 1.454 0 1 1 0 2.907h-.236a.096.096 0 0 0-.097.097l-.001 5.176a1.607 1.607 0 0 1-3.214 0zM48.34 32.375c-.926 0-1.676.75-1.676 1.676l-.015 1.231-.001-.007a.035.035 0 0 1-.064.018l-1.497-2.167v.001a1.675 1.675 0 0 0-3.053.955v6.402a1.676 1.676 0 1 0 3.352 0l.018-1.257v.003c0-.02.016-.035.034-.035q.02 0 .029.014l1.465 2.154a1.675 1.675 0 0 0 3.084-.91v-6.402c0-.925-.75-1.676-1.676-1.676m-13.728 0a1.73 1.73 0 0 0-1.335.628V33l-1.864 2.111s-.021.05-.069.05-.089-.05-.089-.05l-1.892-2.094a1.733 1.733 0 0 0-3.08 1.09v6.384a1.676 1.676 0 0 0 3.353 0l.04-2.297a.05.05 0 0 1 .05-.045q.02.001.035.014l1.505 1.683s.04.06.092.06.09-.06.09-.06l1.417-1.713a.05.05 0 0 1 .035-.014.05.05 0 0 1 .05.05h.001l.042 2.322a1.676 1.676 0 0 0 3.353 0v-6.383c0-.957-.777-1.733-1.734-1.733m18.465 14.802h-.865a.05.05 0 0 1-.051-.05v-1.424a.05.05 0 0 1 .05-.05l.866.001a.761.761 0 1 1 0 1.523m.006-3.996-3.293-.001c-.555 0-1.004.45-1.004 1.004l.006 7.098a1.684 1.684 0 1 0 3.37 0v-1.646a.05.05 0 0 1 .051-.05h.762c2.355 0 3.48-1.589 3.48-3.17 0-1.787-1.51-3.235-3.372-3.235"/><path fill="#003894" d="M59.893 40.649h.004c2.3.219 4.1 2.167 4.1 4.501 0 2.292-1.73 4.184-3.97 4.456-.777.095-1.38.731-1.38 1.53v3.253c0 .07-.055.124-.123.124H21.697a.124.124 0 0 1-.124-.124l-.003-14.227c0-.786-.638-1.424-1.424-1.424h-2.193a.06.06 0 0 1-.04-.016.055.055 0 0 1 0-.079l11.839-12.26a.056.056 0 0 1 .079 0l3.589 3.454c.492.492 1.41.537 1.947 0a1.38 1.38 0 0 0-.004-1.95l-4.607-4.484a1.38 1.38 0 0 0-1.947 0L13.607 39.166a1.43 1.43 0 0 0-.33.913c0 .786.665 1.4 1.425 1.4h4c.067 0 .123.056.123.124v14.231c0 .787.638 1.425 1.425 1.425h39.724c.786 0 1.424-.638 1.424-1.425v-3.646c0-.038.024-.067.057-.076a7.24 7.24 0 0 0 1.233-13.443l-.143-.07a.15.15 0 0 1-.086-.135 9.54 9.54 0 0 0-5.452-8.538c-.05-.025-.076-.076-.084-.134a7.83 7.83 0 0 0-7.767-6.842 7.8 7.8 0 0 0-4.656 1.533c-.614.454-.78 1.296-.342 1.921.437.625 1.317.803 1.922.342a5.072 5.072 0 0 1 7.613 1.763c.34.682.644 1.65.644 3.279 0 .06.042.11.098.12q.133.03.264.067c2.534.688 4.478 2.839 4.908 5.469.059.358.176 1.317.176 3.083 0 .064.048.114.11.121"/><path fill="#003894" d="M31.478 49.887a3.303 3.303 0 0 1-3.304 3.305c-1.276 0-2.245-.504-2.992-1.304a1.37 1.37 0 0 1-.358-.942c0-.776.629-1.405 1.405-1.405.306 0 .689.152.884.256.1.053.598.394.803.394a.277.277 0 0 0 .277-.277c0-.198-.272-.371-.396-.434-1.412-.705-2.708-1.665-2.708-3.42s1.261-3.138 3.253-3.138c1.071 0 2.012.483 2.684 1.214a1.243 1.243 0 0 1-.92 2.08c-.471 0-1.099-.389-1.155-.42-.165-.09-.235-.174-.4-.174a.295.295 0 0 0-.295.296c0 .22.262.403.88.705 1.704.834 2.342 2.037 2.342 3.264m11.54.15a1.987 1.987 0 1 1 0-3.974 1.987 1.987 0 0 1 0 3.974m.002-7.099c-2.787 0-5.046 2.29-5.046 5.112s2.259 5.11 5.046 5.11 5.046-2.287 5.046-5.11c0-2.822-2.26-5.111-5.046-5.111"/></svg>
